symbols/web/rule_folder/materialsymbolssharp/rule_folder_wght700fill1_20px.svg

<svg xmlns="http://www.w3.org/2000/svg" height="20" width="20"><path d="m6.521 13.396 4.187-4.188-1.25-1.25L6.5 10.917 5.312 9.729l-1.229 1.229Zm5.479 0 1.333-1.334 1.334 1.334 1.229-1.229-1.334-1.334L15.896 9.5l-1.229-1.229-1.334 1.333L12 8.271 10.771 9.5l1.333 1.333-1.333 1.334ZM.958 2.312h6.98L10 4.375h9.042v13H.958Z"/></svg>

<svg xmlns="http://www.w3.org/2000/svg" height="20" width="20"><path d="M6.521 13.396 10.708 9.208 9.458 7.958 6.5 10.917 5.312 9.729 4.083 10.958ZM12 13.396 13.333 12.062 14.667 13.396 15.896 12.167 14.562 10.833 15.896 9.5 14.667 8.271 13.333 9.604 12 8.271 10.771 9.5 12.104 10.833 10.771 12.167ZM0.958 2.312H7.938L10 4.375H19.042V17.375H0.958Z"/></svg>
